!!!COM: Scarlatti, Domenico
!!!CDT: 1685///-1757///
!!!OTL: Sonata in A Major, K.113, L.345
!!!SCT: K. 113
!!!SCT: L. 345
!!!OMD: Allegrissimo
**kern	**kern	**dynam
*staff2	*staff1	*staff1/2
*Icemba	*Icemba	*Icemba
*>[A,A,B,B]	*>[A,A,B,B]	*>[A,A,B,B]
*>norep[A,B]	*>norep[A,B]	*>norep[A,B]
*>A	*>A	*>A
*clefF4	*clefG2	*clefG2
*k[f#c#g#]	*k[f#c#g#]	*k[f#c#g#]
*A:	*A:	*A:
*M2/2	*M2/2	*M2/2
*MM240	*MM240	*MM240
=1-	=1-	=1-
1r	4r	.
.	(8cc#\L	f
.	8a\J	.
.	4cc#'\ 4ee'\)	.
.	4dd\ 4ff#\	.
=2	=2	=2
4r	4cc#'\ 4ee'\	.
4CC#'/ 4C#'/	4c#'/	.
4DD/' 4D/'	4d'/	.
4EE'/ 4E'/	4e'/	.
=3	=3	=3
4AAA'/ 4AA'/	4A'/	.
4r	(8cc#\L	.
.	8a\J	.
2r	4cc#'\ 4aa'\)	.
.	4dd'\ 4bb'\	.
=4	=4	=4
4r	4cc#\ 4aa\	.
4CC#'/ 4C#'/	4c#'/	.
4DD'/ 4D'/	4d'/	.
4EE'/ 4E'/	4e'/	.
=5	=5	=5
4AAA'/ 4AA'/	4A'/	.
4r	(8cc#\L	.
.	8a\J)	.
2r	8ee\L	.
.	8cc#\	.
.	8a\	.
.	8dd\ 8ff#\J	.
=6	=6	=6
4r	4cc#\ 4ee\	.
4CC#'/ 4C#'/	4c#'/	.
4DD'/ 4D'/	4d'/	.
4EE'/ 4E'/	4e'/	.
=7	=7	=7
4AAA'/ 4AA'/	4A'/	.
4r	(8cc#\L	.
.	8a\J	.
2r	8aa\L	.
.	8cc#\	.
.	8dd\	.
.	8bb\J	.
=8	=8	=8
4r	4cc#\ 4aa\)	.
4CC#'/ 4C#'/	4c#'/	.
4DD'/ 4D'/	4d'/	.
4EE'/ 4E'/	4e'/	.
=9	=9	=9
4AAA'/ 4AA'/	8A'/L	.
.	(8e/	p
4r	8c#/	.
.	8A/J	.
2r	8f#/L	.
.	8d/	.
.	8g#/	.
.	8e/J	.
=10	=10	=10
4AAA/ 4AA/	8a/L	.
.	8e/	.
4r	8c#/	.
.	8A/J	.
2r	8f#/L	.
.	8d/	.
.	8g#/	.
.	8e/J	.
=11	=11	=11
*	*^	*
4AAA'/ 4AA'/	2r	8a/L	<
.	.	8e/	(
4r	.	8c#/	(
.	.	8A/J	(
2r	(4a/)	8f#\L	(
.	.	8d\	(
.	4b/	8g#\	(
.	.	8e\J	(
=12	=12	=12	=12
4AAA/ 4AA/	4cc#/)	8a\L	(
.	.	8e\	(
4r	4r	8c#\	(
.	.	8A\J	(
2r	(4a/	8f#\L	(
.	.	8d\	(
.	4b/	8g#\	(
.	.	8e\J	[
=13	=13	=13	=13
4AAA/ 4AA/	8cc#/L	4a\	mf
.	8ee/	.	<
4r	8cc#/	4r	(
.	8a/J	.	(
2r	2r	(8ff#\L)	(
.	.	8dd\	(
.	.	8gg#\	(
.	.	8ee\J	(
*	*v	*v	*
=14	=14	=14
4AAA/ 4AA/	8aa\L	(
.	8ee\	(
4r	8cc#\	(
.	8a\J	(
2r	8ff#\L	(
.	8dd\	(
.	8gg#\	(
.	8ee\J	[
*clefG2	*	*
=15	=15	=15
8r	4aa\)	f
(8e/L	.	.
8c#/	(2ee\	.
8A/J	.	.
8f#/L	.	.
8d/	.	.
8g#/	4dd\	.
8e/J	.	.
=16	=16	=16
*	*^	*
8a/L	4r	2cc#\	.
8e/	.	.	.
8c#/	2aa/	.	.
8A/J	.	.	.
8f#/L	.	2dd\)	.
8d/	.	.	.
8g#/	4bb/	.	.
8e/J	.	.	.
*	*v	*v	*
=17	=17	=17
4a'/)	(8aa'\L	.
.	8cc#\	.
(4c#/	8b\	.
.	8a\J)	.
4d/	(8aa'\L	.
.	8b\	.
4e/	8a\	.
.	8g#\J)	.
=18	=18	=18
4a'/)	(8aa'\L	.
.	8cc#\	.
(4c#/	8b\	.
.	8a\J)	.
4d/	(8aa'\L	.
.	8b\	.
4e/)	8a\	.
.	8g#\J	.
*clefF4	*	*
=19	=19	=19
8r	4a'/)	.
(8E/L	.	.
8C#/	2cc#\ (2ee\	.
8AA/J	.	.
8F#\L	.	.
8D\	.	.
8G#\	4b\ 4dd\	.
8E\J	.	.
=20	=20	=20
8A\L	4a\ 4cc#\)	.
8E\	.	.
8B\	(2b\	.
8E\J	.	.
8c#\L	.	.
8E\	.	.
8d#\	4a/	.
8E\J	.	.
=21	=21	=21
4e'\)	8g#/L	.
.	(8b/)	p
(4E\	8g#/	.
.	8e/J	.
4A\	8cc#\L	.
.	8a\	.
4F#\	8dd#\	.
.	8b\J	.
=22	=22	=22
4G#\	8ee\L	.
.	8b\	.
4E\	8g#\	.
.	8e\J	.
4A\	8cc#\L	.
.	8a\	.
4F#\	8dd#\	.
.	8b\J	.
=23	=23	=23
8G#\L)	4ee'\)	<
(8B\	.	(
8G#\	2b\ (2gg#\	(
8E\J	.	(
8c#\L	.	(
8A\	.	(
8d#\	4a\ 4ff#\	(
8B\J	.	(
=24	=24	=24
8e\L	4g#'\ 4ee'\)	(
8B\	.	(
8G#\	2b\ (2gg#\	(
8E\J	.	(
8c#\L	.	(
8A\	.	(
8d#\	4a\ 4ff#\)	(
8B\J	.	(
=25	=25	=25
4e'\)	(8ee'/L	(
.	8g#/	(
(4G#\	8f#/	(
.	8e/J)	(
4A\	(8ee'/L	(
.	8f#/	(
4B\	8e/	(
.	8d#/J)	(
=26	=26	=26
4e'\)	(8ee'/L	(
.	8g#/	(
(4G#\	8f#/	(
.	8e/J)	(
4A\	(8ee'/L	(
.	8f#/	(
4B\	8e/	(
.	8d#/J)	[
=27	=27	=27
4E'\)	(8e/L	f
.	8ee/	.
4r	8fn/	>
.	8ddn/J	)
2r	8e/L	)
.	8cc#/	)
.	8d/	)
.	8b/J	)
=28	=28	=28
1r	8e/L	)
.	8ccn/	)
.	8d/	)
.	8b/J	)
.	8cn/L	)
.	8a/	)
.	8B/	)
.	8g#/J	]
=29	=29	=29
8r	4a/)	p
(4Fn\	.	.
.	4g#/ (4b/	.
8d\	.	.
8E\L	4a\ 4ccn\	.
8cn\	.	.
8D\	4b\ 4dd\	.
8B\J	.	.
=30	=30	=30
8Cn\L	4ccn\ 4ee\	<
8A\	.	(
8D\	4g#\ 4ffn\	(
8B\J	.	(
8C\L	4a\ 4ee\	(
8A\	.	(
8BB\	4b\ 4dd\)	(
8G#\J	.	[
=31	=31	=31
*	*^	*
4AA/)	4r	(8cc#\L	f
.	.	8a\	.
4r	4aa'/	8e\	.
.	.	8cc#\J	.
4Gn'\	4r	8b\L	.
.	.	8gn\	.
4r	4ggn'/	8e\	.
.	.	8b\J	.
=32	=32	=32	=32
4Fn'\	4r	8a\L	.
.	.	8fn\	.
4r	4ffn'/	8d\	.
.	.	8a\J	.
4E'\	4r	8gn\L	.
.	.	8e\	.
4r	4ee'/	8cn\	.
.	.	8g\J	.
=33	=33	=33	=33
4D'\	4r	8fn\L	.
.	.	8d\	.
4r	4dd'/	8B\	.
.	.	8f\J	.
4Cn'/	4r	8e\L	.
.	.	8cn\	.
4r	4ccn'/	8A\	.
.	.	8e\J	.
=34	=34	=34	=34
4BB'/	4r	8d\L	.
.	.	8B\	.
4r	4b'/	8G#\	.
.	.	8d\J	.
4AA'/	4r	8cn\L	.
.	.	8e\	.
4r	4a'/	8A\	.
.	.	8c\J	.
*	*v	*v	*
=35	=35	=35
4EE'/	8B/L)	p
.	(8E/	.
4r	8G#/	.
.	8B/J	.
2r	8e/L	.
.	8B/	.
.	8g#/	.
.	8e/J	.
=36	=36	=36
8r	4ee'\)	<
(8B\L	.	(
8G#\	(2b\	(
8E\J	.	(
8c#\L	.	(
8A\	.	(
8d#\	4a/	(
8B\J	.	(
=37	=37	=37
8e'\)	8g#/L)	(
8r	(8e/	(
4r	8g#/	(
.	8b/J	(
2r	8ee\L	(
.	8b\	(
.	8gg#\	(
.	8ee\J	[
*clefG2	*	*
=38	=38	=38
8r	4bb'\)	f
(8b/L	.	.
8g#/	(2bb\	.
8e/J	.	.
8cc#\L	.	.
8a\	.	.
8dd#\	[4aa\	.
8b\J	.	.
=39	=39	=39
4ee'\)	8aa\L]	.
.	8gg#\	.
(4g#/	8ff#\	.
.	8ee\J	.
4a/	8gg#\L	.
.	8ff#\	.
4b/	8ee\	.
.	8dd#\J	.
=40	=40	=40
8e'\L)	8ee\L	.
(8ee\	8gg#\	.
8dd#\	8ff#\	.
8cc#\J	8ee\J	.
8b/L	8dd#\L	.
8a/	8cc#\	.
8g#/	8b\	.
8f#/J	8a\J	.
=41	=41	=41
4e'/)	8g#/L	.
.	8a/	.
*clefF4	*	*
(4A\	8b/	.
.	8a/J	.
4B\	8g#/L	.
.	8f#/	.
4BB/	8e/	.
.	8d#/J	.
=42	=42	=42
*	*^	*
4E\)	4r	8e'\L)	mf
.	.	(8gn\	.
4r	4bb/	8f#\	.
.	.	8g\J	.
4r	4cccn/	8b\L	.
.	.	8a\	.
(4D#\	4r	8g\	.
.	.	8f#\J	.
=43	=43	=43	=43
4E\)	4r	8gn\L)	.
.	.	(8g\	.
4r	4bb/	8f#\	.
.	.	8g\J	.
4r	4cccn/	8b\L	.
.	.	8a\	.
(4D#\	4r	8g\	.
.	.	8f#\J	.
=44	=44	=44	=44
4E\)	4r	8gn\L	.
.	.	8f#\	.
4r	4cccn/	8g\	.
.	.	8a\J	.
4r	4bb/	8b\L	.
.	.	8fn\	.
(4Dn\	4r	8a\	.
.	.	8g#\J	.
=45	=45	=45	=45
4Cn/)	4r	8a\L	.
.	.	8e\	.
4r	4cccn/	8a\	.
.	.	8ccn\J	.
4r	4bb/	8b\L	.
.	.	8fn\	.
(4D\	4r	8e\	.
.	.	8d\J	.
=46	=46	=46	=46
4Cn/)	4r	8a\L	.
.	.	8d#\	.
4r	4aa/	8e\	.
.	.	8a\J	.
4r	4ggn/	8gn\L	.
.	.	8e\	.
(4BB/	4r	8f#\	.
.	.	8d#\J	.
=47	=47	=47	=47
4E\)	4r	8e\ 8gn\L	.
.	.	8B\	.
4r	4aa/	8f#\ 8a\	.
.	.	8cn\J	.
4r	4ggn/	8e\ 8g\L	.
.	.	8B\	.
(4BB/	4r	8d#\ 8f#\	.
.	.	8B\J	.
=48	=48	=48	=48
4E\)	4r	8e\ 8gn\L	.
.	.	8B\	.
4r	4aa/	8f#\ 8a\	.
.	.	8cn\J	.
4r	4ggn/	8e\ 8g\L	.
.	.	8B\	.
(4BB/	4r	8d#\ 8f#\	.
.	.	8B\J	.
=49	=49	=49	=49
4E'\)	4r	8e\) 8gn\L	.
.	.	(8b\	.
4r	4bb'/	8g\	.
.	.	8e\J	.
4A'\	4r	8ccn\L	.
.	.	8a\	.
4r	4cccn'/	8e\	.
.	.	8cc\J	.
=50	=50	=50	=50
4Gn'\	4r	8b\L	.
.	.	8gn\	.
4r	4bb'/	8e\	.
.	.	8b\J	.
4F#'\	4r	8a\L	.
.	.	8f#\	.
4r	4aa'/	8d#\	.
.	.	8a\J	.
=51	=51	=51	=51
4E'\	4r	8gn\L	.
.	.	8e\	.
4r	4ggn'/	8cn\	.
.	.	8a\J	.
4Dn'\	4r	8b\L	.
.	.	8f#\	.
4r	4ff#'/	8dn\	.
.	.	8f#\J	.
=52	=52	=52	=52
4Cn'/	4r	8b\L	.
.	.	8e\	.
4r	4ee'/	8cn\	.
.	.	8a\J	.
4BB'/	4r	8b\L	.
.	.	8f#\	.
4r	4dd#'/	8d#\	.
.	.	8B\J)	.
*	*v	*v	*
=53	=53	=53
*^	*	*
4r	4r	(8b/L	.
.	.	8a/	.
2B/	(4D#\	8gn/	.
.	.	8f#/J	.
.	4E\	8g/L	.
.	.	8e/	.
4A/	4A\	8a/	.
.	.	8f#/J	.
*v	*v	*	*
=54	=54	=54
*	*^	*
4B\)	4r	8gn/L	.
.	.	8e/	.
4BB'/	4r	8f#/	.
.	.	8d#/J	.
4Gn'\	4r	8e\L)	.
.	.	8b\	p
4r	4bb'/	8gn\	.
.	.	8e\J	.
=55	=55	=55	=55
4A'\	4r	8ccn\L	.
.	.	8a\	.
4r	4cccn/	8e\	.
.	.	8cc\J	.
4Gn'\	4r	8b\L	.
.	.	8gn\	.
4r	4bb'/	8e\	.
.	.	8b\J	.
=56	=56	=56	=56
4F#'\	4r	8a\L	.
.	.	8f#\	.
4r	4aa'/	8d#\	.
.	.	8a\J	.
4E'\	4r	8gn\L	.
.	.	8e\	.
4r	4ggn'/	8cn\	.
.	.	8g\J	.
=57	=57	=57	=57
4Dn'\	4r	8f#\L	.
.	.	8dn\	.
4r	4ff#'/	8B\	.
.	.	8f#\J	.
4Cn'/	4r	8e\L	.
.	.	8cn\	.
4r	4ee'/	8A\	.
.	.	8e\J	.
*	*v	*v	*
=58	=58	=58
4BB'/	8d#/L	.
.	8B/	.
(2BB/	8d#/	.
.	8f#/J	.
.	8b/L	.
.	8a/	.
4D#\	8gn/	.
.	8f#/J	.
=59	=59	=59
4E\	8gn/L	.
.	8e/	.
4A\	8a/	.
.	8f#/J	.
4B\)	8g/L	.
.	8e/	.
4BB'/	8f#/	.
.	8d#/J	.
=60	=60	=60
*	*^	*
4E'\	4r	8e\L	.
.	.	8B\	.
4r	4bb'/	8g#\	.
.	.	8e\J	.
(2BB^/	4r	8f#\L	.
.	.	8d#\	.
.	4r	8a\	.
.	.	8f#\J	.
=61	=61	=61	=61
4E'\)	4r	8g#\L	.
.	.	8e\	.
4r	4bb'/	8b\	.
.	.	8e\J	.
(2BBB^/	4r	8f#\L	.
.	.	8d#\	.
.	4r	8a\	.
.	.	8f#\J	.
=62	=62	=62	=62
4EE'/)	4r	8g#\L	.
.	.	8e\	.
4r	4bb'/	8b\	.
.	.	8e\J	.
(2BBB^/	4r	8f#\L	.
.	.	8d#\	.
.	4r	8a\	.
.	.	8f#\J	.
*	*v	*v	*
=63	=63	=63
4EE'/)	8g#/L	.
.	8a/	.
(4A\	8b/	.
.	8a/J	.
4B\	8g#/L	.
.	8f#/	.
4BB/	8e/	.
.	8d#/J	.
=64	=64	=64
*	*^	*
4E'\)	4r	8e\L	.
.	.	8B\	.
4r	4bb'/	8g#\	.
.	.	8e\J	.
(2BB^/	4r	8f#\L	.
.	.	8d#\	.
.	4r	8a\	.
.	.	8f#\J	.
=65	=65	=65	=65
4E'\)	4r	8g#\L	.
.	.	8e\	.
4r	4bb'/	8b\	.
.	.	8e\J	.
(2BBB^/	4r	8f#\L	.
.	.	8d#\	.
.	4r	8a\	.
.	.	8f#\J	.
=66	=66	=66	=66
4EE'/)	4r	8g#\L	.
.	.	8e\	.
4r	4bb'/	8b\	.
.	.	8e\J	.
(2BBB^/	4r	8f#\L	.
.	.	8d#\	.
.	4r	8a\	.
.	.	8f#\J	.
*	*v	*v	*
=67	=67	=67
4EE'/)	(8g#/L	.
.	8a/	.
(4A\	8b/	.
.	8a/J	.
4B\	8g#/L	.
.	8f#/	.
4BB/	8e/	.
.	8d#/J	.
=68	=68	=68
4E'\)	8e\L)	.
*	*clefF4	*clefF4
.	(8B\	.
(4AA/	8c#\	.
.	8A\J	.
4BB/	8G#\L	.
.	8e\	.
4BBB/)	8F#\	.
.	8d#\J	.
=69	=69	=69
2EE^/	8e\L	.
.	8B\	.
.	8G#\	.
.	8E\J)	.
2r	2E\	.
*	*clefG2	*clefG2
=70:|!|:	=70:|!|:	=70:|!|:
*>B	*>B	*>B
4EE/	8r	.
.	(8e/L	p
4r	8f#/	.
.	8e/J	.
2r	8g#/L	.
.	8e/	.
.	8a/	.
.	8e/J	.
=71	=71	=71
4E\	8b/L	.
.	8e/	.
4E'\ 4d'\	8g#/	.
.	8e/J	.
4E'\ 4c#'\	8a/L	.
.	8e/	.
4E'\ 4B'\	8b/	.
.	8e/J	.
=72	=72	=72
4E'\ 4A'\	8cc#/L	.
.	8e/	.
4E'\ 4d'\	8g#/	.
.	8e/J	.
4E'\ 4c#'\	8a/L	.
.	8e/	.
4E'\ 4B'\	8b/	.
.	8e/J	.
=73	=73	=73
4E'\ 4A'\	8cc#/L	.
.	8e/	.
4E\ 4d\	8g#/	.
.	8e/J	.
4E'\ 4c#'\	8a/L	.
.	8e/	.
4E'\ 4B'\	8b/	.
.	8e/J	.
=74	=74	=74
4AA\ 4A\	8cc#\L)	mf
.	(8a\	.
4r	8b\	.
.	8a\J	.
2r	8cc#\L	.
.	8a\	.
.	8dd\	.
.	8a\J	.
=75	=75	=75
4A'\	8ee\L	.
.	8a\	.
4A\ 4gn\	8cc#\	.
.	8a\J	.
4A'\ 4f#'\	8dd\L	.
.	8a\	.
4A'\ 4e'\	8ee\	.
.	8a\J	.
=76	=76	=76
4A'\ 4d'\	8ff#\L	.
.	8a\	.
4A\ 4gn\	8cc#\	.
.	8a\J	.
4A'\ 4f#'\	8dd\L	.
.	8a\	.
4A'\ 4e'\	8ee\	.
.	8a\J	.
=77	=77	=77
4A'\ 4d'\	8ff#\L	.
.	8a\	.
4A\ 4gn\	8cc#\	.
.	8a\J	.
4A'\ 4f#'\	8dd\L	.
.	8a\	.
4A'\ 4e'\	8ee\	.
.	8a\J	.
=78	=78	=78
*	*^	*
4d'\	4r	8ff#\L)	f
.	.	8a\	.
4r	4aa'/	8dd\	.
.	.	8a\J	.
(2AA^/	4r	8ee\L	.
.	.	8a\	.
.	4r	8ggn\	.
.	.	8a\J	.
=79	=79	=79	=79
4D'\)	4r	8ff#\L	.
.	.	8a\	.
4r	4aa'/	8dd\	.
.	.	8a\J	.
(2AA^/	4r	8ee\L	.
.	.	8a\	.
.	4r	8ggn\	.
.	.	8a\J	.
=80	=80	=80	=80
4D'\)	4r	8ff#\L	.
.	.	8a\	.
4r	4aa'/	8ee\	.
.	.	8a\J	.
(2BB^/	4r	8dd#\L	.
.	.	8b\	.
.	4r	8aa\	.
.	.	8b\J	.
=81	=81	=81	=81
4E'\)	4r	8gg#\L	.
.	.	8b\	.
4r	4bb'/	8ee\	.
.	.	8b\J	.
(2BB^/	4r	8ff#\L	.
.	.	8b\	.
.	4r	8aa\	.
.	.	8b\J	.
=82	=82	=82	=82
4E'\)	4r	8gg#\L	.
.	.	8b\	.
4r	4bb'/	8ee\	.
.	.	8b\J	.
(2BB^/	4r	8ff#\L	.
.	.	8b\	.
.	4r	8aa\	.
.	.	8b\J	.
*	*v	*v	*
=83	=83	=83
4E'\)	8gg#\L	.
.	8ffn\	.
4r	8ee\	.
.	8dd\J	.
4r	8ccn\L	.
.	8b\	.
8r	8a\	.
(8e\	8g#\J	.
=84	=84	=84
4fn\	8a\L	.
.	(8aa\	.
4d\	8gg#\	.
.	8aa\J	.
4g#\	8bb\L	.
.	8dd\	.
4e\	8ccn\	.
.	8b\J	.
=85	=85	=85
4a'\)	8ccn\L	.
.	8ffn\	.
(2d\	8ee\	.
.	8dd\J	.
.	8cc\L	.
.	8b\	.
4e\	8a\	.
.	8g#\J	.
=86	=86	=86
4fn\	8a\L)	.
.	(8aa\	.
4d\	8gg#\	.
.	8aa\J	.
4g#\	8bb\L	.
.	8dd\	.
4e\	8ccn\	.
.	8b\J	.
=87	=87	=87
4a'\)	8ccn\L	.
.	8aa\	.
(4e\	8b\	.
.	8ggn\J	.
4fn\	8a\L	.
.	8ffn\	.
4cn\	8gn\	.
.	8ee\J	.
=88	=88	=88
4d\	8fn/L	.
.	8dd/	.
4A\	8e/	.
.	8ccn/J	.
4Fn\	8d/L	.
.	8b/	.
4A\	8cn/	.
.	8a/J	.
=89	=89	=89
4E'\)	8b/L	p
.	8a/	<
(4.e^\	8g#/	(
.	8f#/J	(
.	4e'/)	(
8d\L	.	(
8cn\	([4ee^\	(
8B\J	.	(
=90	=90	=90
4A'\)	8ee\L]	(
.	8dd\	(
*clefG2	*	*
(4.a^/	8cc#\	(
.	8b\J	(
.	4a'\)	(
8gn/L	.	(
8fn/	([4aa^\	(
8e/J	.	(
=91	=91	=91
4d'/)	8aa\L]	(
.	8ggn\	(
(4.dd^\	8ffn\	(
.	8ee\J	(
.	4dd'\)	(
8ccn\L	.	(
8b\	([4bb^\	(
8a\J	.	(
=92	=92	=92
4e'/)	8bb\L]	(
.	8aa\	(
(4.ee^\	8gg#\	(
.	8ff#\J	(
.	4.ee\)	(
8dd\L	.	(
8ccn\	.	(
8b\J	(8gg#\	[
=93	=93	=93
4a'/)	8aa\L	f
.	8bb\	.
(4d/	8cccn\	.
.	8ddd\J	.
4e/	8ccc\L	.
.	8bb\	.
*clefF4	*	*
4E\	8aa\	.
.	8gg#\J	.
=94	=94	=94
4AA'/)	8aa\L	.
.	8ffn\	.
(2A\	8ee\	.
.	8dd\J	.
.	8ccn\L	.
.	8b\	.
4E\	8a\	.
.	8g#\J	.
=95	=95	=95
4Fn\	8a\L	.
.	8b\	.
4D\	8ccn\	.
.	8dd\J	.
4E\	8cc\L	.
.	8b\	.
4EE/	8a\	.
.	8g#\J	.
=96	=96	=96
*	*^	*
4AA'/)	4r	8a\L)	.
.	.	(8e\	.
4r	4cccn'/	8ccn\	.
.	.	8a\J	.
4Gn'\	4r	8b\L	.
.	.	8gn\	.
4r	4bb'/	8e\	.
.	.	8b\J	.
=97	=97	=97	=97
4Fn'\	4r	8a\L	.
.	.	8fn\	.
4r	4aa'/	8d\	.
.	.	8a\J	.
4E'\	4r	8gn\L	.
.	.	8e\	.
4r	4ggn'/	8cn\	.
.	.	8g\J	.
=98	=98	=98	=98
4D'\	4r	8fn\L	.
.	.	8d\	.
4r	4ffn'/	8B\	.
.	.	8f\J	.
4Cn'/	4r	8e\L	.
.	.	8cn\	.
4r	4ee'/	8A\	.
.	.	8e\J	.
=99	=99	=99	=99
4BB'/	4r	8d\L	.
.	.	8B\	.
4r	4dd'/	8Gn\	.
.	.	8d\J	.
4AA'/	4r	8cn\L	.
.	.	8A\	.
4r	4ccn'/	8Fn\	.
.	.	8c\J	.
=100	=100	=100	=100
4GGn'/	4r	8e\L	.
.	.	8B\	.
4r	4b'/	8Gn\	.
.	.	8B\J	.
4FFn'/	4r	8e\L	.
.	.	8A\	.
4r	4a'/	8Fn\	.
.	.	8d\J	.
*	*v	*v	*
=101	=101	=101
4EE'/	8e/L	.
.	8B/	.
(4.E\	8G#/	.
.	8B/J	.
.	4e'/)	.
8Dn\L	.	.
8Cn\	4g#'/	.
8BB\J	.	.
=102	=102	=102
4Cn\	(8a\L	.
.	8b\	.
4D\	8ccn\	.
.	8dd\J	.
4E\	8cc\L	.
.	8b\	.
4EE/	8a\	.
.	8g#\J	.
=103	=103	=103
*	*^	*
4AA'/)	4r	8a\L)	p
.	.	(8e\	.
4r	4cccn'/	8ccn\	.
.	.	8a\J	.
4Gn'\	4r	8b\L	.
.	.	8gn\	.
4r	4bb'/	8e\	.
.	.	8b\J	.
=104	=104	=104	=104
4Fn\	4r	8a\L	.
.	.	8fn\	.
4r	4aa'/	8d\	.
.	.	8a\J	.
4E'\	4r	8gn\L	.
.	.	8e\	.
4r	4ggn'/	8cn\	.
.	.	8g\J	.
=105	=105	=105	=105
4D'\	4r	8fn\L	.
.	.	8d\	.
4r	4ffn'/	8B\	.
.	.	8f\J	.
4Cn'/	4r	8e\L	.
.	.	8cn\	.
4r	4ee'/	8A\	.
.	.	8e\J	.
=106	=106	=106	=106
4BB'/	4r	8d\L	.
.	.	8B\	.
4r	4dd'/	8Gn\	.
.	.	8d\J	.
4AA'/	4r	8cn\L	.
.	.	8A\	.
4r	4ccn'/	8Fn\	.
.	.	8c\J	.
=107	=107	=107	=107
4GGn'/	4r	8e\L	.
.	.	8B\	.
4r	4b'/	8Gn\	.
.	.	8B\J	.
4FFn'/	4r	8e\L	.
.	.	8A\	.
4r	4a'/	8Fn\	.
.	.	8d\J	.
*	*v	*v	*
=108	=108	=108
4EE'/	8e/L	.
.	8B/	.
(4.E\	8G#/	.
.	8B/J	.
.	4e'/)	.
8Dn\L	.	.
8Cn\	4g#'/	.
8BB\J	.	.
=109	=109	=109
4Cn\	(8a\L	.
.	8b\	.
4D\	8ccn\	.
.	8dd\J	.
4E\	8cc\L	.
.	8b\	.
4EE/	8a\	.
.	8g#\J	.
=110	=110	=110
*	*^	*
4AA'/)	4r	8a\L)	.
.	.	(8e\	.
4r	4aa'/	8cc#\	.
.	.	8e\J	.
(2EE^/	4r	8b\L	.
.	.	8e\	.
.	4r	8dd\	.
.	.	8e\J	.
=111	=111	=111	=111
4AA'/)	4r	8cc#\L	.
.	.	8e\	.
4r	4aa'/	8a\	.
.	.	8e\J	.
(2EE^/	4r	8b\L	.
.	.	8e\	.
.	4r	8dd\	.
.	.	8e\J	.
=112	=112	=112	=112
4AA'/)	4r	8cc#\L	.
.	.	8e\	.
4r	4aa'/	8a\	.
.	.	8e\J	.
(2EE^/	4r	8b\L	.
.	.	8e\	.
.	4r	8dd\	.
.	.	8e\J	.
*	*v	*v	*
=113	=113	=113
4AA'/)	8cc#\L	<
.	8dd\	(
(4D\	8ee\	(
.	8dd\J	(
4E\	8cc#\L	(
.	8b\	(
4EE/	8a\	(
.	8g#\J	[
=114	=114	=114
*	*^	*
4AA'/)	4r	8a\L)	f
.	.	(8e\	.
4r	4aa'/	8cc#\	.
.	.	8e\J	.
(2EE^/	4r	8b\L	.
.	.	8e\	.
.	4r	8dd\	.
.	.	8e\J	.
=115	=115	=115	=115
4AA'/)	4r	8cc#\L	.
.	.	8e\	.
4r	4aa'/	8a\	.
.	.	8e\J	.
(2EE^/	4r	8b\L	.
.	.	8e\	.
.	4r	8dd\	.
.	.	8e\J	.
=116	=116	=116	=116
4AA'/)	4r	8cc#\L	.
.	.	8e\	.
4r	4aa'/	8a\	.
.	.	8e\J	.
(2EE^/	4r	8b\L	.
.	.	8e\	.
.	4r	8dd\	.
.	.	8e\J	.
*	*v	*v	*
=117	=117	=117
4AA'/)	8cc#\L	.
.	8dd\	.
(4D\	8ee\	.
.	8dd\J	.
4E\	8cc#\L	.
.	8b\	.
4EE/	8a\	.
.	8g#\J	.
=118	=118	=118
4AA'/)	8a/L)	.
.	8e/	.
(4D\	8f#/	.
.	8d/J	.
4E\)	8c#/L	.
.	8a/	.
4EE'/	8B/	.
.	8g#/J	.
=119	=119	=119
2AA/	8a/L	.
.	8e/	.
.	8c#/	.
.	8A/J	.
2r	8B/L	.
.	8d/	.
.	8e/	.
.	8g#/J	.
=120	=120	=120
2AA/	8a/L	.
.	8e/	.
.	8c#/	.
.	8A/J	.
2r	8B/L	.
.	8d/	.
.	8e/	.
.	8g#/J	.
=121	=121	=121
2AA/	8a/L	.
.	8e/	.
.	8c#/	.
.	8A/J	.
2r	8B/L	.
.	8d/	.
.	8e/	.
.	8g#/J	.
=122	=122	=122
.	(g#q/	.
1AA 1C# 1E 1A	1c# 1e 1a)	.
==:|!	==:|!	==:|!
*-	*-	*-
!!!ENC: Craig Stuart Sapp
!!!END: 2004/11/02/
